X:2240
T:Girl With The Blue Dress On
O:england
M:4/4
L:1/8
C:Trad
S:Bear Session
R:Polka
K:G
|: Bc | d2 Bd c2 Ac | B2 G2 GFGB | A2 F2 FEFG | A2 G2 G2 Bc | d2 Bd c2 A
c | B2 G2 GFGB | A2 F2 FEFG | A2 G2 G2 :|
|:d2 | G2 Bd g3 f | f2 e2 e4 | D2 FA f3 e | e2 d2 d4 | G2 Bd g3 f | f2 e
2 e2 g2 | fg af e2 f2 | g6 :|
